X: 96
M: 6/8
L: 1/8
K: G
g2g |\
g2G ABc | B2A d2d | dcB AGA | B2G g2g |\
g2G ABc | B2A d2d | dcB AGF | G3 :|
|: d2d |\
gfe a2d | ^c2A a2a | agf efd | ^c2A a2a |\
dcB ABG | F2D | g2g | g2G ABc | B2A d2d |\
dcB AGA | B2G g2g | g2G ABc | B2A d2d |\
dcB AGF | G2 :|


